X:85
T:Steyrer Tanz in G, nr. 48
C:traditionell
R:Steirer
A:Hallstatt, Salzkammergut
B:Corpus Musicae Popularis Austriacae (COMPA), 5.Band: J.M.Schmalnauer " Tanz Musik", Verlag Boehlau, Wien 1996
S:manuscript des Johann Michael Schmalnauer um 1820
N:im der quelle in G
Z:abc transcription Simon Wascher
F:http://simonwascher.info/TradArchiv/
M:3/4
L:1/8
K:G
V:1
%violino 1mo
P:h:Ap
Bdce "o"Af | g2 bdbg | fac'd c'a | bgfg d2 |\
Bdce "o"Af | g2 bdbg | fac'd c'a | g4 :|
V:2
%violino 2do
(GB)(Ac)Dc | Te2 gBgB | AfaA af | gede B2 |\
(GB)(Ac)Dc | Te2 gBgB | AfaA af | B4 :|
